svgs/light/chalkboard.svg

<svg xmlns="http://www.w3.org/2000/svg" viewBox="0 0 576 512"><!-- Font Awesome Pro 6.0.0-alpha2 by @fontawesome - https://fontawesome.com License - https://fontawesome.com/license (Commercial License) --><path d="M560 448H416V400C416 373.531 394.469 352 368 352H272C245.531 352 224 373.531 224 400V448H16C7.156 448 0 455.156 0 464S7.156 480 16 480H560C568.844 480 576 472.844 576 464S568.844 448 560 448ZM384 448H256V400C256 391.188 263.172 384 272 384H368C376.828 384 384 391.188 384 400V448ZM45.322 383.783C55.352 385.404 64 377.721 64 368V80C64 71.162 71.164 64 80 64H496C504.836 64 512 71.162 512 80V368C512 376.836 519.164 384 528 384S544 376.836 544 368V80C544 53.49 522.51 32 496 32H80C53.49 32 32 53.49 32 80V367.166C32 375.135 37.455 382.512 45.322 383.783Z"/></svg>

<svg xmlns="http://www.w3.org/2000/svg" viewBox="0 0 576 512"><!--! Font Awesome Pro 6.3.0 by @fontawesome - https://fontawesome.com License - https://fontawesome.com/license (Commercial License) Copyright 2023 Fonticons, Inc. --><path d="M560 448H416v-48c0-26.47-21.53-48-48-48h-96C245.5 352 224 373.5 224 400V448H16C7.156 448 0 455.2 0 464S7.156 480 16 480h544c8.844 0 16-7.156 16-16S568.8 448 560 448zM384 448H256v-48C256 391.2 263.2 384 272 384h96c8.828 0 16 7.188 16 16V448zM45.32 383.8C55.35 385.4 64 377.7 64 368v-288C64 71.16 71.16 64 80 64h416C504.8 64 512 71.16 512 80v288c0 8.836 7.164 16 16 16s16-7.164 16-16v-288C544 53.49 522.5 32 496 32h-416C53.49 32 32 53.49 32 80v287.2C32 375.1 37.46 382.5 45.32 383.8z"/></svg>
